gauge-full.svg

<svg fill="currentColor" viewBox="0 0 24 24"><path d="M12 2A10 10 0 0 0 2 12a10 10 0 0 0 10 10 10 10 0 0 0 10-10A10 10 0 0 0 12 2m0 2a8 8 0 0 1 8 8c0 2.4-1 4.5-2.7 6-1.4-1.3-3.3-2-5.3-2s-3.8.7-5.3 2C5 16.5 4 14.4 4 12a8 8 0 0 1 8-8m-2 2a1 1 0 0 0-1 1 1 1 0 0 0 1 1 1 1 0 0 0 1-1 1 1 0 0 0-1-1m4 0a1 1 0 0 0-1 1 1 1 0 0 0 1 1 1 1 0 0 0 1-1 1 1 0 0 0-1-1m3.09 2.94c-.13 0-.25.03-.39.06l-3.2 1.32-.27.11c-.56-.43-1.32-.55-1.98-.28a1.99 1.99 0 0 0-1.1 2.6 1.99 1.99 0 0 0 2.6 1.1c.66-.26 1.13-.85 1.25-1.57l.23-.1 3.22-1.3.02-.01c.53-.21.76-.79.56-1.31a1 1 0 0 0-.94-.62M7 9a1 1 0 0 0-1 1 1 1 0 0 0 1 1 1 1 0 0 0 1-1 1 1 0 0 0-1-1"/></svg>

<svg  viewBox="0 0 24 24" fill="currentColor"><path  d="M12,2A10,10 0 0,0 2,12A10,10 0 0,0 12,22A10,10 0 0,0 22,12A10,10 0 0,0 12,2M12,4A8,8 0 0,1 20,12C20,14.4 19,16.5 17.3,18C15.9,16.7 14,16 12,16C10,16 8.2,16.7 6.7,18C5,16.5 4,14.4 4,12A8,8 0 0,1 12,4M10,6A1,1 0 0,0 9,7A1,1 0 0,0 10,8A1,1 0 0,0 11,7A1,1 0 0,0 10,6M14,6A1,1 0 0,0 13,7A1,1 0 0,0 14,8A1,1 0 0,0 15,7A1,1 0 0,0 14,6M17.09,8.94C16.96,8.94 16.84,8.97 16.7,9L13.5,10.32L13.23,10.43C12.67,10 11.91,9.88 11.25,10.15C10.23,10.56 9.73,11.73 10.15,12.75C10.56,13.77 11.73,14.27 12.75,13.85C13.41,13.59 13.88,13 14,12.28L14.23,12.18L17.45,10.88L17.47,10.87C18,10.66 18.23,10.08 18.03,9.56C17.87,9.18 17.5,8.93 17.09,8.94M7,9A1,1 0 0,0 6,10A1,1 0 0,0 7,11A1,1 0 0,0 8,10A1,1 0 0,0 7,9Z"/></svg>
